Production/EA4S_WordDrawings/SVG/singles_SVG/tooth.svg

<?xml version="1.0" encoding="UTF-8" standalone="no"?><!DOCTYPE svg PUBLIC "-//W3C//DTD SVG 1.1//EN" "http://www.w3.org/Graphics/SVG/1.1/DTD/svg11.dtd"><svg width="100%" height="100%" viewBox="0 0 419 482" version="1.1" xmlns="http://www.w3.org/2000/svg" xmlns:xlink="http://www.w3.org/1999/xlink" xml:space="preserve" style="fill-rule:evenodd;clip-rule:evenodd;stroke-linejoin:round;stroke-miterlimit:1.41421;"><g id="tooth"><path d="M213.696,63.21c11.66,3.879 22.616,-9.012 30.611,-15.662c10.193,-8.479 20.481,-16.838 32.058,-23.383c20.48,-11.581 45.652,-13.876 68.002,-6.773c19.322,6.143 35.625,20.986 45.531,38.418c12.354,21.736 15.444,46.377 11.514,70.853c-3.547,22.091 -10.732,43.945 -20.032,64.259c-3.817,8.34 -7.875,16.657 -12.743,24.441c-2.145,3.43 -4.482,6.738 -7.08,9.841c-0.434,0.519 -1.068,1.215 -2.699,2.596c-0.363,0.308 -2.513,1.752 -0.348,0.3c-0.521,0.352 -2.396,0.994 -0.188,0.183c-4.174,1.533 -8.176,5.472 -7.922,10.25c0.25,4.713 4.867,5.961 8.742,4.908c8.617,-2.34 14.753,-10.313 19.502,-17.378c5.941,-8.835 10.778,-18.438 15.315,-28.05c10.575,-22.407 18.386,-46.396 22.764,-70.798c4.5,-25.08 2.482,-51.194 -8.942,-74.223c-9.414,-18.976 -24.709,-34.867 -43.842,-44.111c-23.466,-11.337 -51.619,-11.313 -75.701,-1.898c-13.793,5.393 -25.974,13.97 -37.386,23.269c-5.95,4.848 -11.708,9.939 -17.442,15.038c-6.07,5.396 -10.825,10.285 -18.667,13.034c-2.005,0.699 -3.858,3.951 -1.047,4.886Z" style="fill:#010101;fill-rule:nonzero;"/><path d="M285.192,39.394c-10.562,11.529 -21.773,20.785 -37.786,22.426c-13.646,1.396 -27.364,-4.341 -39.422,-9.999c-29.716,-13.947 -55.858,-34.652 -87.427,-44.723c-14.927,-4.761 -30.819,-5.736 -45.968,-1.407c-20.111,5.747 -37.466,21.346 -49.572,37.877c-28.019,38.266 -29.933,90.323 -15.695,134.21c5.113,15.764 12.743,30.618 22.11,44.267c4.63,6.746 9.879,13.047 15.492,18.994c5.374,5.691 11.521,10.567 16.94,16.207c4.383,4.561 6.816,9.712 7.506,16.01c0.04,0.364 -0.011,0.749 -0.034,1.112c0.182,-2.739 -0.032,0.021 -0.097,0.571c-0.248,2.112 -0.566,4.218 -0.896,6.318c-0.739,4.704 -1.639,9.39 -2.802,14.008c-0.271,1.08 -0.583,2.149 -0.908,3.214c0.671,-2.194 -0.812,3.599 -0.77,4.091c0.052,0.618 -0.136,2.594 0.15,0.313c0.397,-3.164 10.899,-7.693 4.935,-5.435c1.809,0.354 3.616,0.709 5.425,1.063c-0.079,-0.085 -0.158,-0.169 -0.237,-0.254c-4.643,-4.97 -14.862,4.055 -10.248,8.994c0.079,0.084 0.158,0.169 0.237,0.253c-0.288,-1.337 -0.576,-2.674 -0.864,-4.012c-0.925,4.829 3.399,7.042 7.529,5.823c4.163,-1.227 7.589,-5.037 9.573,-8.68c3.575,-6.563 4.225,-16.073 5.302,-23.347c1.216,-8.207 1.104,-15.591 -2.646,-23.313c-5.107,-10.518 -15.669,-17.454 -23.609,-25.653c-34.169,-35.282 -50.834,-88.003 -41.408,-136.414c4.157,-21.353 14.229,-41.375 30.343,-56.165c6.389,-5.864 14.657,-11.426 21.602,-14.024c6.844,-2.561 12.798,-3.33 20.496,-3.174c13.89,0.281 29.135,6.293 42.125,12.501c15.018,7.178 29.353,15.741 44.064,23.51c18.237,9.63 37.372,18.266 58.337,18.7c21.704,0.451 41.574,-13.53 52.633,-31.485c2.306,-3.742 -1.961,-5.051 -4.41,-2.377Z" style="fill:#010101;fill-rule:nonzero;"/><path d="M352.465,268.476c-4.972,7.461 -9.871,15.183 -13.195,23.549c-2.983,7.51 -1.77,16.61 0.825,24.016c2.655,7.573 7.535,14.351 11.732,21.117c5.324,8.581 9.438,17.736 12.448,27.374c6.121,19.591 5.188,40.063 -0.665,59.555c-2.707,9.009 -6.815,17.422 -10.037,26.227c-1.092,2.987 -2.133,5.987 -3.568,8.83c-0.378,0.749 -0.99,1.321 0.224,0.027c7.126,-1.594 8.624,-2.367 4.493,-2.32c-0.541,0.106 -1.023,0.139 -1.576,0.126c-2.771,-0.063 -5.38,2.444 -6.544,4.718c-0.547,1.065 -0.967,2.19 -1.23,3.363c-0.354,1.568 -0.229,4.014 1.114,5.178c7.133,6.172 15.174,-1.682 18.03,-8.386c3.174,-7.448 4.868,-13.455 7.662,-20.832c8.114,-21.42 13.479,-42.972 10.081,-65.974c-2.964,-20.061 -11.813,-37.353 -23.322,-53.738c-4.822,-6.866 -9.098,-14.062 -9.68,-22.614c-0.691,-10.178 5.9,-18.957 9.222,-28.121c1.595,-4.404 -3.838,-5.361 -6.014,-2.095Z" style="fill:#010101;fill-rule:nonzero;"/><path d="M81.458,303.765c-8.188,6.022 -13.426,15.804 -18.126,24.595c-4.119,7.7 -7.482,15.832 -9.76,24.269c-3.642,13.483 -3.012,27.261 1.347,40.471c4.327,13.118 11.913,25.029 18.97,36.802c4.469,7.453 8.896,14.931 13.077,22.551c4.899,8.926 8.406,18.69 13.748,27.341c1.903,3.08 7.122,1.901 9.563,0.511c3.165,-1.807 6.112,-5.495 5.816,-9.348c-0.063,0.293 -0.125,0.586 -0.187,0.879c-0.629,1.331 -1.259,2.662 -1.888,3.992c0.036,-0.041 0.072,-0.082 0.107,-0.122c-3.869,1.284 -7.738,2.569 -11.607,3.854c-2.281,-1.369 -0.514,-0.04 0.169,0.525c1.854,-3.864 3.707,-7.729 5.561,-11.594c1.395,-0.211 1.606,-0.302 0.638,-0.271c-2.564,-0.026 -5.188,2.276 -6.206,4.474c-0.679,1.469 -1.004,2.844 -1.132,4.465c-0.192,2.441 1.96,3.771 3.892,4.436c0.011,0.003 0.021,0.007 0.029,0.01c3.055,1.049 6.88,-1.687 8.602,-3.906c2.195,-2.834 3.647,-8.435 0.777,-11.366c-3.333,-3.405 -8.155,-1.574 -11.378,0.922c-2.187,1.692 -3.525,4.356 -3.938,7.048c5.392,-1.737 10.783,-3.475 16.176,-5.213c-2.656,-8.542 -8.043,-16.481 -12.44,-24.219c-4.195,-7.385 -8.666,-14.611 -13.183,-21.803c-7.167,-11.408 -14.732,-22.717 -19.909,-35.214c-4.48,-10.814 -6.042,-22.403 -4.134,-33.979c1.268,-7.688 3.834,-15.079 6.894,-22.22c3.74,-8.729 9.976,-17.341 11.546,-26.813c0.341,-2.049 -1.857,-1.936 -3.024,-1.077Z" style="fill:#010101;fill-rule:nonzero;"/><path d="M116.91,480.538c16.518,4.851 28.188,-10.507 33.888,-23.89c5.869,-13.785 8.751,-29.094 12.821,-43.484c8.466,-29.939 21.532,-70.933 56.281,-78.364c-1.001,-4.829 -2.003,-9.659 -3.005,-14.489c-2.315,1.543 -5.896,3.032 -8.134,5.96c-2.824,3.693 -2.292,11.561 4.127,10.359c3.328,-0.622 6.193,-0.979 9.182,-2.788c3.25,-1.969 6.116,-5.474 5.903,-9.487c-0.247,-4.652 -4.98,-6.273 -8.909,-5.002c-36.979,11.98 -54.895,46.787 -65.751,81.597c-4.394,14.088 -7.622,28.547 -11.284,42.834c-3.707,14.457 -8.774,29.42 -24.521,33.963c-1.16,0.332 -2.199,2.321 -0.598,2.791Z" style="fill:#010101;fill-rule:nonzero;"/><path d="M225.367,328.077c15.998,8.357 24.201,24.698 30.869,40.834c6.286,15.208 11.438,30.883 17.056,46.346c6.008,16.541 12.71,33.512 24.383,46.967c12.215,14.079 29.807,20 48.075,16.494c6.152,-1.182 13.871,-8.181 9.092,-14.772c-2.548,-3.513 -6.247,-3.416 -10.146,-2.938c-5.361,0.657 -11.787,7.245 -7.772,12.631c1.317,1.771 2.649,2.098 3.321,3.118c3.031,-4.925 6.063,-9.849 9.093,-14.772c-7.761,1.514 -15.529,1.6 -22.876,-1.601c-6.945,-3.024 -12.325,-8.217 -16.984,-14.069c-10.7,-13.441 -16.857,-30.316 -23.042,-46.147c-6.001,-15.362 -12.065,-31.056 -20.026,-45.519c-7.238,-13.146 -20.82,-34.661 -38.784,-31.336c-1.685,0.31 -4.897,3.386 -2.259,4.764Z" style="fill:#010101;fill-rule:nonzero;"/><path d="M97.338,242.416c3.011,9.052 8.042,15.311 16.334,20.174c8.462,4.963 19.043,6.672 28.637,7.774c10.573,1.215 21.253,1.367 31.877,1.787c4.481,0.178 8.95,0.331 13.417,0.743c4.698,0.435 10.044,2.412 14.623,0.898c4.098,-1.353 8.386,-6.741 5.229,-10.898c-2.432,-3.199 -7.896,-2.953 -11.554,-3.199c-4.809,-0.324 -9.633,-0.359 -14.45,-0.308c-10.278,0.11 -20.535,0.87 -30.819,0.755c-18.093,-0.204 -39.362,-3.644 -50.234,-19.912c-1.011,-1.513 -3.53,0.771 -3.06,2.186Z" style="fill:#010101;fill-rule:nonzero;"/><path d="M261.48,269.275c10.02,2.368 20.904,0.631 30.76,-1.702c10.222,-2.419 21.666,-5.762 30.815,-11.009c6.21,-3.563 6.632,-14.894 -2.521,-12.155c-9.276,2.772 -18.027,7.723 -27.245,10.847c-9.62,3.259 -19.222,5.271 -29.265,6.581c-3.168,0.414 -7.405,6.289 -2.544,7.438Z" style="fill:#010101;fill-rule:nonzero;"/></g></svg>

<?xml version="1.0" encoding="UTF-8"?>
<svg width="419px" height="482px" viewBox="0 0 419 482" version="1.1" xmlns="http://www.w3.org/2000/svg" xmlns:xlink="http://www.w3.org/1999/xlink">
    <!-- Generator: Sketch 41 (35326) - http://www.bohemiancoding.com/sketch -->
    <title>tooth</title>
    <desc>Created with Sketch.</desc>
    <defs></defs>
    <g id="Page-1" stroke="none" stroke-width="1" fill="none" fill-rule="evenodd">
        <g id="Layer_1" transform="translate(-1729.000000, -75.000000)" fill="#010101">
            <g id="Layer_1_3_">
                <g id="tooth" transform="translate(1729.000000, 75.000000)">
                    <path d="M213.696,63.21 C225.356,67.089 236.312,54.198 244.307,47.548 C254.5,39.069 264.788,30.71 276.365,24.165 C296.845,12.584 322.017,10.289 344.367,17.392 C363.689,23.535 379.992,38.378 389.898,55.81 C402.252,77.546 405.342,102.187 401.412,126.663 C397.865,148.754 390.68,170.608 381.38,190.922 C377.563,199.262 373.505,207.579 368.637,215.363 C366.492,218.793 364.155,222.101 361.557,225.204 C361.123,225.723 360.489,226.419 358.858,227.8 C358.495,228.108 356.345,229.552 358.51,228.1 C357.989,228.452 356.114,229.094 358.322,228.283 C354.148,229.816 350.146,233.755 350.4,238.533 C350.65,243.246 355.267,244.494 359.142,243.441 C367.759,241.101 373.895,233.128 378.644,226.063 C384.585,217.228 389.422,207.625 393.959,198.013 C404.534,175.606 412.345,151.617 416.723,127.215 C421.223,102.135 419.205,76.021 407.781,52.992 C398.367,34.016 383.072,18.125 363.939,8.881 C340.473,-2.456 312.32,-2.432 288.238,6.983 C274.445,12.376 262.264,20.953 250.852,30.252 C244.902,35.1 239.144,40.191 233.41,45.29 C227.34,50.686 222.585,55.575 214.743,58.324 C212.738,59.023 210.885,62.275 213.696,63.21 L213.696,63.21 Z" id="Shape"></path>
                    <path d="M285.192,39.394 C274.63,50.923 263.419,60.179 247.406,61.82 C233.76,63.216 220.042,57.479 207.984,51.821 C178.268,37.874 152.126,17.169 120.557,7.098 C105.63,2.337 89.738,1.362 74.589,5.691 C54.478,11.438 37.123,27.037 25.017,43.568 C-3.002,81.834 -4.916,133.891 9.322,177.778 C14.435,193.542 22.065,208.396 31.432,222.045 C36.062,228.791 41.311,235.092 46.924,241.039 C52.298,246.73 58.445,251.606 63.864,257.246 C68.247,261.807 70.68,266.958 71.37,273.256 C71.41,273.62 71.359,274.005 71.336,274.368 C71.518,271.629 71.304,274.389 71.239,274.939 C70.991,277.051 70.673,279.157 70.343,281.257 C69.604,285.961 68.704,290.647 67.541,295.265 C67.27,296.345 66.958,297.414 66.633,298.479 C67.304,296.285 65.821,302.078 65.863,302.57 C65.915,303.188 65.727,305.164 66.013,302.883 C66.41,299.719 76.912,295.19 70.948,297.448 C72.757,297.802 74.564,298.157 76.373,298.511 C76.294,298.426 76.215,298.342 76.136,298.257 C71.493,293.287 61.274,302.312 65.888,307.251 C65.967,307.335 66.046,307.42 66.125,307.504 C65.837,306.167 65.549,304.83 65.261,303.492 C64.336,308.321 68.66,310.534 72.79,309.315 C76.953,308.088 80.379,304.278 82.363,300.635 C85.938,294.072 86.588,284.562 87.665,277.288 C88.881,269.081 88.769,261.697 85.019,253.975 C79.912,243.457 69.35,236.521 61.41,228.322 C27.241,193.04 10.576,140.319 20.002,91.908 C24.159,70.555 34.231,50.533 50.345,35.743 C56.734,29.879 65.002,24.317 71.947,21.719 C78.791,19.158 84.745,18.389 92.443,18.545 C106.333,18.826 121.578,24.838 134.568,31.046 C149.586,38.224 163.921,46.787 178.632,54.556 C196.869,64.186 216.004,72.822 236.969,73.256 C258.673,73.707 278.543,59.726 289.602,41.771 C291.908,38.029 287.641,36.72 285.192,39.394 L285.192,39.394 Z" id="Shape"></path>
                    <path d="M352.465,268.476 C347.493,275.937 342.594,283.659 339.27,292.025 C336.287,299.535 337.5,308.635 340.095,316.041 C342.75,323.614 347.63,330.392 351.827,337.158 C357.151,345.739 361.265,354.894 364.275,364.532 C370.396,384.123 369.463,404.595 363.61,424.087 C360.903,433.096 356.795,441.509 353.573,450.314 C352.481,453.301 351.44,456.301 350.005,459.144 C349.627,459.893 349.015,460.465 350.229,459.171 C357.355,457.577 358.853,456.804 354.722,456.851 C354.181,456.957 353.699,456.99 353.146,456.977 C350.375,456.914 347.766,459.421 346.602,461.695 C346.055,462.76 345.635,463.885 345.372,465.058 C345.018,466.626 345.143,469.072 346.486,470.236 C353.619,476.408 361.66,468.554 364.516,461.85 C367.69,454.402 369.384,448.395 372.178,441.018 C380.292,419.598 385.657,398.046 382.259,375.044 C379.295,354.983 370.446,337.691 358.937,321.306 C354.115,314.44 349.839,307.244 349.257,298.692 C348.566,288.514 355.157,279.735 358.479,270.571 C360.074,266.167 354.641,265.21 352.465,268.476 L352.465,268.476 Z" id="Shape"></path>
                    <path d="M81.458,303.765 C73.27,309.787 68.032,319.569 63.332,328.36 C59.213,336.06 55.85,344.192 53.572,352.629 C49.93,366.112 50.56,379.89 54.919,393.1 C59.246,406.218 66.832,418.129 73.889,429.902 C78.358,437.355 82.785,444.833 86.966,452.453 C91.865,461.379 95.372,471.143 100.714,479.794 C102.617,482.874 107.836,481.695 110.277,480.305 C113.442,478.498 116.389,474.81 116.093,470.957 C116.03,471.25 115.968,471.543 115.906,471.836 C115.277,473.167 114.647,474.498 114.018,475.828 C114.054,475.787 114.09,475.746 114.125,475.706 C110.256,476.99 106.387,478.275 102.518,479.56 C100.237,478.191 102.004,479.52 102.687,480.085 C104.541,476.221 106.394,472.356 108.248,468.491 C109.643,468.28 109.854,468.189 108.886,468.22 C106.322,468.194 103.698,470.496 102.68,472.694 C102.001,474.163 101.676,475.538 101.548,477.159 C101.356,479.6 103.508,480.93 105.44,481.595 C105.451,481.598 105.461,481.602 105.469,481.605 C108.524,482.654 112.349,479.918 114.071,477.699 C116.266,474.865 117.718,469.264 114.848,466.333 C111.515,462.928 106.693,464.759 103.47,467.255 C101.283,468.947 99.945,471.611 99.532,474.303 C104.924,472.566 110.315,470.828 115.708,469.09 C113.052,460.548 107.665,452.609 103.268,444.871 C99.073,437.486 94.602,430.26 90.085,423.068 C82.918,411.66 75.353,400.351 70.176,387.854 C65.696,377.04 64.134,365.451 66.042,353.875 C67.31,346.187 69.876,338.796 72.936,331.655 C76.676,322.926 82.912,314.314 84.482,304.842 C84.823,302.793 82.625,302.906 81.458,303.765 L81.458,303.765 Z" id="Shape"></path>
                    <path d="M116.91,480.538 C133.428,485.389 145.098,470.031 150.798,456.648 C156.667,442.863 159.549,427.554 163.619,413.164 C172.085,383.225 185.151,342.231 219.9,334.8 C218.899,329.971 217.897,325.141 216.895,320.311 C214.58,321.854 210.999,323.343 208.761,326.271 C205.937,329.964 206.469,337.832 212.888,336.63 C216.216,336.008 219.081,335.651 222.07,333.842 C225.32,331.873 228.186,328.368 227.973,324.355 C227.726,319.703 222.993,318.082 219.064,319.353 C182.085,331.333 164.169,366.14 153.313,400.95 C148.919,415.038 145.691,429.497 142.029,443.784 C138.322,458.241 133.255,473.204 117.508,477.747 C116.348,478.079 115.309,480.068 116.91,480.538 L116.91,480.538 Z" id="Shape"></path>
                    <path d="M225.367,328.077 C241.365,336.434 249.568,352.775 256.236,368.911 C262.522,384.119 267.674,399.794 273.292,415.257 C279.3,431.798 286.002,448.769 297.675,462.224 C309.89,476.303 327.482,482.224 345.75,478.718 C351.902,477.536 359.621,470.537 354.842,463.946 C352.294,460.433 348.595,460.53 344.696,461.008 C339.335,461.665 332.909,468.253 336.924,473.639 C338.241,475.41 339.573,475.737 340.245,476.757 C343.276,471.832 346.308,466.908 349.338,461.985 C341.577,463.499 333.809,463.585 326.462,460.384 C319.517,457.36 314.137,452.167 309.478,446.315 C298.778,432.874 292.621,415.999 286.436,400.168 C280.435,384.806 274.371,369.112 266.41,354.649 C259.172,341.503 245.59,319.988 227.626,323.313 C225.941,323.623 222.729,326.699 225.367,328.077 L225.367,328.077 Z" id="Shape"></path>
                    <path d="M97.338,242.416 C100.349,251.468 105.38,257.727 113.672,262.59 C122.134,267.553 132.715,269.262 142.309,270.364 C152.882,271.579 163.562,271.731 174.186,272.151 C178.667,272.329 183.136,272.482 187.603,272.894 C192.301,273.329 197.647,275.306 202.226,273.792 C206.324,272.439 210.612,267.051 207.455,262.894 C205.023,259.695 199.559,259.941 195.901,259.695 C191.092,259.371 186.268,259.336 181.451,259.387 C171.173,259.497 160.916,260.257 150.632,260.142 C132.539,259.938 111.27,256.498 100.398,240.23 C99.387,238.717 96.868,241.001 97.338,242.416 L97.338,242.416 Z" id="Shape"></path>
                    <path d="M261.48,269.275 C271.5,271.643 282.384,269.906 292.24,267.573 C302.462,265.154 313.906,261.811 323.055,256.564 C329.265,253.001 329.687,241.67 320.534,244.409 C311.258,247.181 302.507,252.132 293.289,255.256 C283.669,258.515 274.067,260.527 264.024,261.837 C260.856,262.251 256.619,268.126 261.48,269.275 L261.48,269.275 Z" id="Shape"></path>
                </g>
            </g>
        </g>
    </g>
</svg>
